ix/emoji-sad_linear.svg

<svg viewBox="0 0 24 24" fill="none" xmlns="http://www.w3.org/2000/svg" height="1em" width="1em">
  <path d="M9 22h6c5 0 7-2 7-7V9c0-5-2-7-7-7H9C4 2 2 4 2 9v6c0 5 2 7 7 7Z" stroke="#292D32" stroke-width="1.5" stroke-linecap="round" stroke-linejoin="round"/>
  <path d="M7 8.75c1-1 2.63-1 3.64 0m2.72 0c1-1 2.63-1 3.64 0M8.4 17.7h7.2c.5 0 .9-.4.9-.9 0-2.49-2.01-4.5-4.5-4.5s-4.5 2.01-4.5 4.5c0 .5.4.9.9.9Z" stroke="#292D32" stroke-width="1.5" stroke-miterlimit="10" stroke-linecap="round" stroke-linejoin="round"/>
</svg>

<svg viewBox="0 0 24 24" fill="none" xmlns="http://www.w3.org/2000/svg" height="1em" width="1em">
  <path d="M9 22H15C20 22 22 20 22 15V9C22 4 20 2 15 2H9C4 2 2 4 2 9V15C2 20 4 22 9 22Z" stroke="#292D32" stroke-width="1.5" stroke-linecap="round" stroke-linejoin="round"/>
  <path d="M7 8.75C8 7.75 9.63 7.75 10.64 8.75" stroke="#292D32" stroke-width="1.5" stroke-miterlimit="10" stroke-linecap="round" stroke-linejoin="round"/>
  <path d="M13.36 8.75C14.36 7.75 15.99 7.75 17 8.75" stroke="#292D32" stroke-width="1.5" stroke-miterlimit="10" stroke-linecap="round" stroke-linejoin="round"/>
  <path d="M8.4 17.7H15.6C16.1 17.7 16.5 17.3 16.5 16.8C16.5 14.31 14.49 12.3 12 12.3C9.51 12.3 7.5 14.31 7.5 16.8C7.5 17.3 7.9 17.7 8.4 17.7Z" stroke="#292D32" stroke-width="1.5" stroke-miterlimit="10" stroke-linecap="round" stroke-linejoin="round"/>
</svg>
